tools/download-figma-icons/icons/solid/power-gas.svg

<svg width="25" height="24" viewBox="0 0 25 24" fill="none" xmlns="http://www.w3.org/2000/svg">
<path fill-rule="evenodd" clip-rule="evenodd" d="M7.79255 13.1025C7.60505 12.78 7.50005 12.405 7.50005 12C7.50005 10.755 8.50505 9.74999 9.75005 9.74999C9.75005 8.50499 10.755 7.49999 12 7.49999C12.1275 7.49999 12.255 7.50749 12.375 7.53749C12.645 7.57499 12.9 7.67249 13.1325 7.80749C13.35 7.93499 13.545 8.09249 13.7025 8.28749C13.7925 8.17499 13.8675 8.08499 13.9125 8.03249C13.995 7.91249 14.4075 7.27499 14.085 6.65249C13.935 6.35249 13.575 5.99999 12.75 5.99999H8.49755V1.30499C8.49755 0.727494 8.13755 0.224994 7.59005 0.0599939C7.05005 -0.112506 6.46505 0.0974939 6.15005 0.554994L0.232549 8.57249C-0.0374515 8.96249 -0.0749515 9.42749 0.135049 9.82499C0.352549 10.2375 0.810049 10.5 1.32755 10.5H5.00255V15.195C5.00255 15.7725 5.36255 16.275 5.91005 16.44C6.03755 16.485 6.16505 16.5 6.30005 16.5C6.71255 16.5 7.10255 16.305 7.32755 15.9825L8.35505 14.7525C8.41907 14.6821 8.57598 14.4969 8.80246 14.2296L8.80249 14.2296L8.92505 14.085C8.68505 13.995 8.46755 13.8675 8.28005 13.695C8.08505 13.5375 7.91255 13.335 7.79255 13.1025ZM21.93 13.8825C20.805 12.3825 19.53 10.68 19.095 8.12246C19.05 7.86746 18.8775 7.64996 18.6375 7.55246C18.3975 7.45496 18.12 7.49246 17.91 7.64246C17.1525 8.20496 16.4775 8.75246 15.87 9.31496C15.862 9.32298 15.844 9.33994 15.817 9.36538C15.7179 9.45883 15.4973 9.66681 15.2025 9.96746C15.435 10.0725 15.645 10.2225 15.825 10.395C16.0125 10.575 16.1625 10.785 16.275 11.0175C16.4175 11.31 16.5 11.6475 16.5 12C16.5 13.245 15.495 14.25 14.25 14.25C14.25 15.1875 13.68 15.99 12.8625 16.3275H12.855C12.6075 16.4325 12.345 16.4925 12.0675 16.4925C12.045 16.5 12.0225 16.5 12 16.5C11.7675 16.5 11.535 16.4625 11.325 16.395C11.2725 16.68 11.25 16.965 11.25 17.25V17.8725C11.25 22.26 14.6625 23.7975 16.4625 23.9925C16.7625 24.0225 17.07 23.8725 17.2125 23.595C17.355 23.3175 17.31 22.98 17.1 22.7475C17.0925 22.74 16.1325 21.645 16.26 20.2425C16.305 19.65 16.545 19.0725 16.965 18.5175C17.2537 19.3538 17.8491 19.9492 18.3333 20.4332L18.3525 20.4525C18.675 20.76 18.9675 21.0525 19.0725 21.3075C19.35 22.0275 18.795 22.7925 18.795 22.7925C18.6 23.04 18.585 23.3775 18.75 23.64C18.885 23.865 19.125 24 19.3875 24C19.4325 24 19.4775 24 19.5225 23.985C21.0975 23.7 24.0675 22.1475 24 18.3075C23.97 16.6125 22.98 15.285 21.93 13.8825ZM11.7375 14.9475C11.4525 14.8425 11.25 14.5725 11.25 14.25V12.75H9.75C9.5475 12.75 9.3675 12.6675 9.2325 12.5475C9.09 12.405 9 12.21 9 12C9 11.5875 9.3375 11.25 9.75 11.25H11.25V9.75C11.25 9.3375 11.5875 9 12 9C12.045 9 12.09 9.0075 12.135 9.015L12.135 9.015C12.405 9.06 12.6225 9.255 12.705 9.5025C12.735 9.5775 12.75 9.66 12.75 9.75V11.25H14.25C14.475 11.25 14.6775 11.3475 14.8125 11.505C14.9325 11.64 15 11.8125 15 12C15 12.4125 14.6625 12.75 14.25 12.75H12.915C12.8953 12.7809 12.8746 12.8118 12.8537 12.8431C12.8186 12.8953 12.7828 12.9487 12.75 13.005V14.25C12.75 14.6625 12.4125 15 12 15C11.91 15 11.82 14.985 11.7375 14.9475Z" fill="black"/>
</svg>

<svg xmlns="http://www.w3.org/2000/svg" width="25" height="24" fill="none" viewBox="0 0 25 24"><path fill="currentColor" fill-rule="evenodd" d="M7.793 13.103A2.247 2.247 0 0 1 12 7.5c.127 0 .255.007.375.037.27.038.525.135.758.27.217.128.412.285.57.48.09-.112.165-.202.21-.255.082-.12.495-.757.172-1.38-.15-.3-.51-.652-1.335-.652H8.498V1.305c0-.578-.36-1.08-.908-1.245a1.28 1.28 0 0 0-1.44.495L.233 8.572c-.27.39-.308.855-.098 1.253.218.413.675.675 1.193.675h3.675v4.695c0 .578.36 1.08.907 1.245.128.045.255.06.39.06.413 0 .803-.195 1.028-.518l1.027-1.23c.064-.07.221-.255.447-.522l.123-.145a2 2 0 0 1-.645-.39 1.9 1.9 0 0 1-.487-.593m14.137.78c-1.125-1.5-2.4-3.203-2.835-5.76a.76.76 0 0 0-.457-.57.77.77 0 0 0-.728.09 24 24 0 0 0-2.093 1.722c-.1.094-.32.302-.614.602a2.24 2.24 0 0 1 1.072 1.05 2.25 2.25 0 0 1-2.025 3.233c0 .938-.57 1.74-1.387 2.078h-.008c-.248.105-.51.165-.787.165q-.034.009-.068.007a2.2 2.2 0 0 1-.675-.105q-.076.427-.075.855v.622c0 4.388 3.412 5.926 5.212 6.12.3.03.608-.12.75-.397a.75.75 0 0 0-.112-.848c-.008-.007-.968-1.102-.84-2.504.045-.593.285-1.17.705-1.726.289.837.884 1.432 1.368 1.916l.02.02c.322.307.614.6.72.855.277.72-.278 1.485-.278 1.485a.73.73 0 0 0-.045.847.74.74 0 0 0 .637.36c.046 0 .09 0 .136-.015 1.575-.285 4.544-1.837 4.477-5.677-.03-1.695-1.02-3.023-2.07-4.425m-10.192 1.065a.74.74 0 0 1-.488-.698v-1.5h-1.5a.78.78 0 0 1-.518-.203.752.752 0 0 1 .518-1.297h1.5v-1.5c0-.412.338-.75.75-.75.045 0 .09.008.135.015.27.045.488.24.57.487a.7.7 0 0 1 .045.248v1.5h1.5a.74.74 0 0 1 .563.255.752.752 0 0 1-.562 1.245h-1.336l-.061.093q-.053.078-.104.162v1.245c0 .412-.338.75-.75.75a.6.6 0 0 1-.262-.053" clip-rule="evenodd"/></svg>
